X:0773
T:Begone dull care.
M:6/8
L:1/8
Q:3/8=80 "Slow"
I: :| :|
Z:Jack Campin * www.campin.me.uk * 2009
K:D
A   |d3  e3 |f3- f2g|a>ba gfg| f3- f2A   |d3 e3|f3- f2g/g/|f>gf ede d3- d2:|
f/g/|a2a a2f|g2g g2e|f2 f fed|Hf3  e2A/A/|d3 e3|f3- f2g   |f>gf ede d3  d2:|
<end>
<start>
